assets/icons/hide.svg

<?xml version="1.0" encoding="UTF-8" standalone="no"?>
<svg
   viewBox="0 0 24 24"
   width="24"
   height="24"
   version="1.1"
   id="svg854"
   sodipodi:docname="hide.svg"
   inkscape:version="1.2 (1:1.2.1+202207142221+cd75a1ee6d)"
   xmlns:inkscape="http://www.inkscape.org/namespaces/inkscape"
   xmlns:sodipodi="http://sodipodi.sourceforge.net/DTD/sodipodi-0.dtd"
   xmlns="http://www.w3.org/2000/svg"
   xmlns:svg="http://www.w3.org/2000/svg"
   xmlns:rdf="http://www.w3.org/1999/02/22-rdf-syntax-ns#"
   xmlns:cc="http://creativecommons.org/ns#"
   xmlns:dc="http://purl.org/dc/elements/1.1/">
  <metadata
     id="metadata860">
    <rdf:RDF>
      <cc:Work
         rdf:about="">
        <dc:format>image/svg+xml</dc:format>
        <dc:type
           rdf:resource="http://purl.org/dc/dcmitype/StillImage" />
      </cc:Work>
    </rdf:RDF>
  </metadata>
  <defs
     id="defs858" />
  <sodipodi:namedview
     pagecolor="#ffffff"
     bordercolor="#666666"
     borderopacity="1"
     objecttolerance="10"
     gridtolerance="10"
     guidetolerance="10"
     inkscape:pageopacity="0"
     inkscape:pageshadow="2"
     inkscape:window-width="1920"
     inkscape:window-height="1016"
     id="namedview856"
     showgrid="false"
     inkscape:zoom="29.5"
     inkscape:cx="6.1864407"
     inkscape:cy="10.830509"
     inkscape:window-x="0"
     inkscape:window-y="0"
     inkscape:window-maximized="1"
     inkscape:current-layer="svg854"
     inkscape:document-rotation="0"
     inkscape:pagecheckerboard="0"
     inkscape:snap-page="true"
     inkscape:snap-grids="true"
     inkscape:showpageshadow="2"
     inkscape:deskcolor="#d1d1d1">
    <inkscape:grid
       type="xygrid"
       id="grid1429" />
  </sodipodi:namedview>
  <g
     id="layer9"
     label="status"
     style="display:inline;fill:#808080;fill-opacity:1;stroke-width:0.8"
     transform="matrix(1.25,0,0,1.25,-594.25301,-14.290169)" />
  <g
     id="layer2"
     style="display:inline;fill:#808080;fill-opacity:1;stroke-width:0.8"
     transform="matrix(1.25,0,0,1.25,-293.00276,-473.04018)" />
  <g
     id="layer4"
     style="display:inline;fill:#808080;fill-opacity:1;stroke-width:0.8"
     transform="matrix(1.25,0,0,1.25,-293.00276,-473.04018)" />
  <g
     id="g1812"
     style="display:inline;fill:#808080;fill-opacity:1;stroke-width:0.8"
     transform="matrix(1.25,0,0,1.25,-293.00276,-473.04018)" />
  <g
     id="g6217"
     style="display:inline;fill:#808080;fill-opacity:1;stroke-width:0.8"
     transform="matrix(1.25,0,0,1.25,-293.00276,-473.04018)" />
  <g
     id="layer3"
     style="display:inline;fill:#808080;fill-opacity:1;stroke-width:0.8"
     transform="matrix(1.25,0,0,1.25,-293.00276,-473.04018)" />
  <g
     id="g1833"
     style="display:inline;fill:#808080;fill-opacity:1;stroke-width:0.8"
     transform="matrix(1.25,0,0,1.25,-293.00276,-473.04018)" />
  <path
     id="path93"
     style="color:#000000;fill:#808080;fill-opacity:1;fill-rule:evenodd;stroke-linecap:square;stroke-linejoin:round;-inkscape-stroke:none"
     d="M 19.646484 3.6464844 L 16.894531 6.3984375 C 15.562945 5.6758698 13.934035 5.1796875 11.966797 5.1796875 C 4.657303 5.1796875 2 12 2 12 L 1.9316406 12.179688 L 2 12.359375 C 2 12.359375 3.141114 15.289335 5.984375 17.308594 L 3.6464844 19.646484 L 4.3535156 20.353516 L 6.8476562 17.859375 L 7.5625 17.144531 L 8.7246094 15.982422 L 9.4453125 15.261719 L 10.148438 14.558594 L 12.353516 12.353516 L 12.738281 11.96875 L 15.060547 9.6464844 L 15.771484 8.9355469 L 17.082031 7.625 L 17.773438 6.9335938 L 20.353516 4.3535156 L 19.646484 3.6464844 z M 11.966797 6.1796875 C 13.634251 6.1796875 15.022969 6.5568923 16.173828 7.1191406 L 15.042969 8.25 A 5 5 0 0 0 11.966797 7.1796875 A 5 5 0 0 0 6.9667969 12.179688 A 5 5 0 0 0 8.0390625 15.253906 L 6.6796875 16.613281 C 4.2101714 14.951923 3.1595598 12.520125 3.0214844 12.179688 C 3.2337335 11.656367 5.5880035 6.1796875 11.966797 6.1796875 z M 18.580078 7.5410156 L 17.904297 8.2167969 C 19.912908 9.8329671 20.786723 11.870532 20.912109 12.179688 C 20.699863 12.703006 18.345589 18.179688 11.966797 18.179688 C 10.661675 18.179688 9.5272604 17.947324 8.5429688 17.578125 L 7.7890625 18.332031 C 8.9696878 18.848863 10.355308 19.179688 11.966797 19.179688 C 19.276292 19.179688 21.933594 12.359375 21.933594 12.359375 L 22.001953 12.179688 L 21.933594 12 C 21.933594 12 20.960213 9.5119422 18.580078 7.5410156 z M 11.966797 8.1796875 A 4 4 0 0 1 14.326172 8.9667969 L 12.078125 11.214844 A 1.5 1.5 0 0 1 11.966797 10.679688 A 1.5 1.5 0 0 1 12.849609 9.3125 A 3 3 0 0 0 11.966797 9.1796875 A 3 3 0 0 0 8.9667969 12.179688 A 3 3 0 0 0 9.4785156 13.814453 L 8.7617188 14.53125 A 4 4 0 0 1 7.9667969 12.179688 A 4 4 0 0 1 11.966797 8.1796875 z M 16.347656 9.7734375 L 15.605469 10.515625 A 4 4 0 0 1 15.605469 10.517578 A 4 4 0 0 1 15.966797 12.179688 A 4 4 0 0 1 11.966797 16.179688 A 4 4 0 0 1 10.3125 15.808594 L 9.5644531 16.556641 A 5 5 0 0 0 11.966797 17.179688 A 5 5 0 0 0 16.966797 12.179688 A 5 5 0 0 0 16.347656 9.7734375 z M 14.833984 11.296875 A 1.5 1.5 0 0 1 14.097656 12.023438 L 13.060547 13.060547 L 11.089844 15.03125 A 3 3 0 0 0 11.966797 15.179688 A 3 3 0 0 0 14.966797 12.179688 A 3 3 0 0 0 14.833984 11.296875 z " />
</svg>

<svg width="24" height="24" xmlns="http://www.w3.org/2000/svg"><path style="color:#000;fill:gray;fill-opacity:1;stroke-linecap:square;stroke-linejoin:round;-inkscape-stroke:none" d="m19.646 3.646-2.751 2.752c-1.332-.722-2.961-1.218-4.928-1.218C4.657 5.18 2 12 2 12l-.068.18.068.18s1.141 2.93 3.984 4.949l-2.338 2.337.708.708 2.494-2.495.715-.714 1.162-1.163.72-.72.703-.703 2.206-2.205.384-.385 2.323-2.323.71-.71 1.311-1.311.691-.691 2.58-2.58-.707-.708zm-7.68 2.534c1.668 0 3.057.377 4.208.94l-1.131 1.13a5 5 0 0 0-3.076-1.07 5 5 0 0 0-5 5 5 5 0 0 0 1.072 3.074l-1.36 1.36C4.21 14.951 3.16 12.52 3.022 12.18c.213-.524 2.567-6 8.946-6zm6.614 1.36-.676.676c2.009 1.616 2.883 3.654 3.008 3.963-.212.523-2.566 6-8.945 6a9.661 9.661 0 0 1-3.424-.602l-.754.754c1.18.517 2.566.848 4.178.848 7.31 0 9.967-6.82 9.967-6.82l.068-.18-.068-.18S20.96 9.511 18.58 7.54zm-6.613.639a4 4 0 0 1 2.36.787l-2.249 2.248a1.5 1.5 0 0 1-.111-.535 1.5 1.5 0 0 1 .883-1.367 3 3 0 0 0-.883-.133 3 3 0 0 0-3 3 3 3 0 0 0 .512 1.634l-.717.717a4 4 0 0 1-.795-2.351 4 4 0 0 1 4-4zm4.38 1.593-.742.743a4 4 0 0 1 0 .002 4 4 0 0 1 .362 1.662 4 4 0 0 1-4 4 4 4 0 0 1-1.655-.371l-.748.748a5 5 0 0 0 2.403.623 5 5 0 0 0 5-5 5 5 0 0 0-.62-2.407zm-1.513 1.524a1.5 1.5 0 0 1-.736.726l-1.037 1.038-1.971 1.97a3 3 0 0 0 .877.149 3 3 0 0 0 3-3 3 3 0 0 0-.133-.883z"/></svg>
